X:16
T:Miss Johnson’s Reel. 2voices. Dix.16
M:C
L:1/8
Q:1/4=120
S:Anon. MS dated 1811, from Dixon collection, Holton le Moor, Lincs.
R:reel
N:Repeat marks added at start
O:England;Lincolnshire;Holton le Moor
Z:vmp.R.Greig 2010 <http://www.village-music-project.org.uk>
K:G
[V:1]d/c/|:Bcde dBBe|dBgd bdgd|Bcde dBBd|cAag {g}”tr”fefd:|
[V:2][K:G clef=bass]z|:[D2B,2G,2][D2B,2G,2][D2B,2G,2][D2B,2G,2]|[D2B,2G,2][D2B,2G,2][D2B,2G,2][D2B,2G,2]|[D2B,2G,2][D2B,2G,2][D2B,2G,2]”rest added”z2|[C,2C,,2][^C,2C,,2][D,2D,,2][D,2D,,2]:|
[V:1]|:{c}BABd G<DB<A|GBDB GBDB|B2AG BB{B}AG|FGAB cAec|
[V:2]|:G,,2G,2G,,2G,2|G,,2G,2G,,2G,2|G,,2G,2G,,2G,2|D,2D2D,2F,2|
[V:1]BABd G<G”tr”B>A|GBDB GB DB|dBcA BGAF|DEFG ABcd:|
[V:2]G,2G,2G,,2G,2|G,,2G,2G,,2G,2|[B,2B,,2][A,2A,,2][G,2G,,2][F,2F,,2]|[D,2D,,2][D,2D,,2][F,2F,,2][F,2F,,2]:|
[V:1]|:Bcde dBBe|dGgd bcgd|B>”tr”cde dBBd|cAag f”tr”efd:|
[V:2]|:[G,2G,,2][G,2G,,2][G,2G,,2][G,2G,,2]|[G,2G,,2][G,2G,,2][G,2G,,2][G,2G,,2]|[G,2G,,2][G,2G,,2][B,,2B,,,2][B,,2B,,,2]|[C,2C,,2][^C,2C,,2][D,2D,,2][D,2D,,2]:|
[V:1]|:babd’ g<gba|gbdb gbdb|”tr”b2ag gg {b}ag|fgab c’ae’c’|
[V:2]|:G,,2G,2 G,,2G,2|G,,2G,2G,,2G,2|G,,2G,2G,,2G,2|D,2D2F,2F2|
[V:1]babd’ g>g “tr”b>a|gbdd’ gbdd’|d’bc’a bgaf|defg abc'”$”d’:|
[V:2]G,2 G2 G,2G2|B,2G2G,2G2|[B,2B,,2][A,2A,,2][G,2G,,2][F,2F,,2]|[D,2D,,2][D,2D,,2][F,2F,,2]”$”[F,2F,,2]:|

